src/images/spades.svg

<?xml version="1.0" encoding="UTF-8"?>
<svg class="card-suit" width="150px" height="150px" viewBox="0 0 150 150" version="1.1" xmlns="http://www.w3.org/2000/svg" xmlns:xlink="http://www.w3.org/1999/xlink">
    <title>spades</title>
    <g id="spades" stroke="none" stroke-width="1" fill="none" fill-rule="evenodd">
        <path d="M75,7 C48.6576782,44.5526133 20.4717364,66.1627935 20.0034793,95.4601294 C19.8464418,104.947094 24.9775697,121.071766 41.049641,124.158147 C51.476929,126.151297 65.8332946,117.714923 66.1330934,100.575538 C66.0874098,97.1632392 69.7475249,97.2519181 69.7132622,101.927614 C69.2221632,115.447002 64.9410362,131.187275 57.7458649,144 C69.2487168,144 80.7512832,144 92.2541351,144 C85.0589638,131.187275 80.7778368,115.447002 80.2867378,101.927614 C80.2524751,97.2519181 83.9125902,97.1632392 83.8669066,100.575538 C84.1667054,117.714923 98.523071,126.151298 108.950359,124.158147 C125.02243,121.071766 130.153558,104.947094 129.996521,95.4601294 C129.528264,66.1627935 101.342322,44.5526133 75,7 Z" id="path6844-7-0" fill="currentColor"></path>
    </g>
</svg>

<svg class="spades_svg__card-suit" width="150" height="150" viewBox="0 0 150 150" xmlns="http://www.w3.org/2000/svg"><title>spades</title><path d="M75 7C48.658 44.553 20.472 66.163 20.003 95.46c-.157 9.487 4.975 25.612 21.047 28.698 10.427 1.993 24.783-6.443 25.083-23.582-.046-3.413 3.615-3.324 3.58 1.352-.49 13.519-4.772 29.26-11.967 42.072h34.508c-7.195-12.813-11.476-28.553-11.967-42.072-.035-4.676 3.626-4.765 3.58-1.352.3 17.139 14.656 25.575 25.083 23.582 16.072-3.086 21.204-19.21 21.047-28.698C129.528 66.163 101.342 44.553 75 7z" fill="currentColor" fill-rule="evenodd"/></svg>
